icons/4_Outdated/Carta v1.svg

<svg xmlns="http://www.w3.org/2000/svg" width="1024" height="1024" fill="none">
   <g clip-path="url(#a)">
      <path fill="#9ABEFF" d="M512 1024c282.77 0 512-229.23 512-512S794.77 0 512 0 0 229.23 0 512s229.23 512 512 512Z"/>
      <path fill="#fff" d="M378.14 393 160 550.95s292.77 121.68 689.27 0l-.75-.13c-20.76 0-45.31 1.06-74.08 0h-4.6c-6.21-.25-19.58-1.18-19.58-1.18l-9.2-.81a467.044 467.044 0 0 1-38.84-5l-10.07-1.74c-1.93-.37-24.36-5.22-27.22-5.84-2.86-.62-5.72-1.37-8.64-2.11-5.22-1.31-10.5-2.8-15.91-4.35l-7.46-2.24c-5-1.43-10.13-3.11-15.35-4.85l-9.32-3.17c-4.54-1.55-9.07-3.23-13.73-5-61.65-23.24-133.62-60.9-216.4-121.62l.02.09ZM697 428.7l-102.47 74.58c4.66 1.74 9.2 3.42 13.73 5l9.32 3.17c5.22 1.74 10.32 3.42 15.35 4.85l7.46 2.24c5.41 1.55 10.69 3 15.91 4.35 2.92.75 5.34 1.31 8.64 2.11 3.3.8 18 4 21.44 4.72l5.47.81 10.07 1.74c13.61 2.3 26.41 3.91 38.84 5l9.2.81c.19 0 13.36 1.18 19.58 1.18h4.6c28.77 1.12 53.32 0 74.08 0H864L697 428.7Z"/>
   </g>
   <defs>
      <clipPath id="a">
         <path fill="#fff" d="M0 0h1024v1024H0z"/>
      </clipPath>
   </defs>
</svg>

<svg width="1024" height="1024" viewBox="0 0 1024 1024" fill="none" xmlns="http://www.w3.org/2000/svg">
<g clip-path="url(#clip0_3_503)">
<path d="M512 1024C794.77 1024 1024 794.77 1024 512C1024 229.23 794.77 0 512 0C229.23 0 0 229.23 0 512C0 794.77 229.23 1024 512 1024Z" fill="#9ABEFF"/>
<path d="M378.14 393L160 550.95C160 550.95 452.77 672.63 849.27 550.95L848.52 550.82C827.76 550.82 803.21 551.88 774.44 550.82H769.84C763.63 550.57 750.26 549.64 750.26 549.64L741.06 548.83C728.049 547.707 715.091 546.039 702.22 543.83L692.15 542.09C690.22 541.72 667.79 536.87 664.93 536.25C662.07 535.63 659.21 534.88 656.29 534.14C651.07 532.83 645.79 531.34 640.38 529.79L632.92 527.55C627.92 526.12 622.79 524.44 617.57 522.7L608.25 519.53C603.71 517.98 599.18 516.3 594.52 514.53C532.87 491.29 460.9 453.63 378.12 392.91L378.14 393ZM697 428.7L594.53 503.28C599.19 505.02 603.73 506.7 608.26 508.28L617.58 511.45C622.8 513.19 627.9 514.87 632.93 516.3L640.39 518.54C645.8 520.09 651.08 521.54 656.3 522.89C659.22 523.64 661.64 524.2 664.94 525C668.24 525.8 682.94 529 686.38 529.72L691.85 530.53L701.92 532.27C715.53 534.57 728.33 536.18 740.76 537.27L749.96 538.08C750.15 538.08 763.32 539.26 769.54 539.26H774.14C802.91 540.38 827.46 539.26 848.22 539.26H864L697 428.7Z" fill="white"/>
</g>
<defs>
<clipPath id="clip0_3_503">
<rect width="1024" height="1024" fill="white"/>
</clipPath>
</defs>
</svg>
